X:1
T: Alexander Davidson (Desswood)
C:Alexander Walker
R:Strathspey
Q:128
K:F
M:4/4
L:1/16
|:g2|f3F dcBA cF3 F3a|f3c a3A G4 G3g|f3F dcBA cf3 a3g|f3d cA3 F4 F2g2|
f3F dcBA cF3 F3a|f3c a3A G4 G3g|f3F dcBA cf3 a3g|f3d cA3 F4 F2c2|
f3g a3g fc3 c3a|b3g a3f d4 d3e|f3g a3g f3c AF3|DG3 C3E F4 F3c|
f3g a3g f3c AF3|f3a g3f gd3 d3e|fa3 f3c df3 c3A|Bd3 G3c AF3 F2:|
